X: 44
T:Paddy Carthy
R:Reel
Z:Added by Alf Warnock
M:4/4
L:1/8
K:D
|E2BE GABG|E2BG FDAF|E2BE GABe|dBBA BEE2|
E2BE GABG|E2BG FDAF|E2BE GABe|dBBA BEE2:|
|:efge fgaf|gfed edBA|efge fgaf|gfed Bee2|
efge fgaf|gfed edBA|bgaf gfed|edBA BEE:|

